svg/system/fingerprint_2_line.svg

<svg xmlns="http://www.w3.org/2000/svg" width="24" height="24" viewBox="0 0 24 24"><g fill="none" fill-rule="evenodd"><path d="M24,0 L24,24 L0,24 L0,0 L24,0 Z M12.5935,23.2578 L12.5819,23.2595 L12.5109,23.295 L12.4919,23.2987 L12.4767,23.295 L12.4057,23.2595 C12.3958,23.2564 12.387,23.259 12.3821,23.2649 L12.378,23.2758 L12.3609,23.7031 L12.3659,23.7235 L12.3769,23.7357 L12.4805,23.8097 L12.4953,23.8136 L12.5071,23.8097 L12.6107,23.7357 L12.6233,23.7197 L12.6267,23.7031 L12.6096,23.2758 C12.6076,23.2657 12.601,23.2593 12.5935,23.2578 Z M12.8584,23.1453 L12.8445,23.1473 L12.6598,23.2397 L12.6499,23.2499 L12.6472,23.2611 L12.6651,23.6906 L12.6699,23.7034 L12.6784,23.7105 L12.8793,23.8032 C12.8914,23.8069 12.9022,23.803 12.9078,23.7952 L12.9118,23.7812 L12.8777,23.1665 C12.8753,23.1546 12.8674,23.147 12.8584,23.1453 Z M12.143,23.1473 C12.1332,23.1424 12.1222,23.1453 12.1156,23.1526 L12.1099,23.1665 L12.0758,23.7812 C12.0751,23.7927 12.0828,23.8019 12.0926,23.8046 L12.1083,23.8032 L12.3092,23.7105 L12.3186,23.7024 L12.3225,23.6906 L12.3404,23.2611 L12.3372,23.2485 L12.3278,23.2397 L12.143,23.1473 Z"/><path fill="#09244B" d="M12,4 C7.58172,4 4,7.58172 4,12 C4,13.6381 4.28092,15.2084 4.79637,16.6668 C4.98042,17.1875 4.70749,17.7588 4.18677,17.9428 C3.66606,18.1269 3.09474,17.854 2.91069,17.3332 C2.32063,15.6638 2,13.8683 2,12 C2,6.47715 6.47715,2 12,2 C17.5228,2 22,6.47715 22,12 C22,14.2091 20.2091,16 18,16 C16.0685,16 14.4201,14.6036 14.1026,12.6984 L13.9246,11.6304 C13.7678,10.6896 12.9538,10 12,10 C10.8954,10 10,10.8954 10,12 C10,15.4931 12.2394,18.4658 15.3639,19.5558 C15.8854,19.7377 16.1606,20.3079 15.9787,20.8294 C15.7968,21.3508 15.2266,21.6261 14.7051,21.4442 C10.8024,20.0827 8,16.3699 8,12 C8,9.79086 9.79086,8 12,8 C13.9315,8 15.5799,9.39639 15.8974,11.3016 L16.0754,12.3696 C16.2322,13.3104 17.0462,14 18,14 C19.1046,14 20,13.1046 20,12 C20,7.58172 16.4183,4 12,4 Z M12,7 C9.23858,7 7,9.23858 7,12 C7,15.2853 8.43894,18.2332 10.7243,20.2503 C11.1383,20.6157 11.1777,21.2477 10.8123,21.6617 C10.4468,22.0758 9.81486,22.1152 9.40079,21.7497 C6.70358,19.3691 5,15.8829 5,12 C5,8.13401 8.13401,5 12,5 C15.866,5 19,8.13401 19,12 C19,12.5523 18.5523,13 18,13 C17.4477,13 17,12.5523 17,12 C17,9.23858 14.7614,7 12,7 Z M12,11 C12.5523,11 13,11.4477 13,12 C13,14.7614 15.2386,17 18,17 C18.285,17 18.5638,16.9762 18.8345,16.9308 C19.3792,16.8394 19.8948,17.2069 19.9862,17.7516 C20.0776,18.2963 19.7101,18.8119 19.1655,18.9033 C18.7858,18.967 18.3964,19 18,19 C14.134,19 11,15.866 11,12 C11,11.4477 11.4477,11 12,11 Z"/></g></svg>

<svg xmlns="http://www.w3.org/2000/svg" width="24" height="24"><g fill="none" fill-rule="evenodd"><path d="M24 0v24H0V0zM12.594 23.258l-.012.002-.071.035-.02.004-.014-.004-.071-.036c-.01-.003-.019 0-.024.006l-.004.01-.017.428.005.02.01.013.104.074.015.004.012-.004.104-.074.012-.016.004-.017-.017-.427c-.002-.01-.009-.017-.016-.018m.264-.113-.014.002-.184.093-.01.01-.003.011.018.43.005.012.008.008.201.092c.012.004.023 0 .029-.008l.004-.014-.034-.614c-.003-.012-.01-.02-.02-.022m-.715.002a.023.023 0 0 0-.027.006l-.006.014-.034.614c0 .012.007.02.017.024l.015-.002.201-.093.01-.008.003-.011.018-.43-.003-.012-.01-.01z"/><path fill="#09244B" d="M12 4a8 8 0 0 0-8 8c0 1.638.28 3.208.796 4.667a1 1 0 1 1-1.885.666C2.32 15.663 2 13.868 2 12 2 6.477 6.477 2 12 2s10 4.477 10 10a4 4 0 0 1-4 4 3.951 3.951 0 0 1-3.897-3.302l-.178-1.068A1.951 1.951 0 0 0 12 10a2 2 0 0 0-2 2 8.004 8.004 0 0 0 5.364 7.556 1 1 0 1 1-.659 1.888C10.802 20.083 8 16.37 8 12a4 4 0 0 1 4-4 3.951 3.951 0 0 1 3.897 3.302l.178 1.068c.157.94.971 1.63 1.925 1.63a2 2 0 0 0 2-2 8 8 0 0 0-8-8m0 3a5 5 0 0 0-5 5c0 3.285 1.439 6.233 3.724 8.25a1 1 0 0 1-1.323 1.5A12.971 12.971 0 0 1 5 12a7 7 0 0 1 14 0 1 1 0 1 1-2 0 5 5 0 0 0-5-5m0 4a1 1 0 0 1 1 1 5 5 0 0 0 5.834 4.93 1 1 0 0 1 .332 1.973A7 7 0 0 1 11 12a1 1 0 0 1 1-1"/></g></svg>
